X:1
T:Cardiff, 88.88.88
T:Cardiff, 88.88.88
T:Attributed to J. Herring
T:Public Domain Courtesy of the Cyber Hymnal™
C:Attributed to J. Herring
Z:Public Domain
Z:Courtesy of the Cyber Hymnal™
%%score ( 1 2 ) ( 3 4 )
L:1/8
M:4/4
K:D
V:1 treble 
V:2 treble 
V:3 bass 
V:4 bass 
V:1
|: [FA]4 [EG]3 [DF] | [DF]6 [DF]2 x2 | [DF]4 EDEF | D6 [DA]2 | B2 dc edcB |1 B2 A4 [FA]2 | %6
 [FA]2 [GB][FA] [EG]2 [DF]2 | [DF]4 [CE]4 :|2 A2 d4 [DF]2 x2 || [DA]2 [EG]2 [DF]2 [CE]2 | %10
 D6 [Fd]2 | e2 c2 [FA]2 [EG]2 | F2 [FA]4 [Fd]2 x2 | e2 c2 [FA]2 [EG]2 x4 | F2 [FA]4 [FA]2 | %15
 [GB]2 [Bd][GB] [ce][Bd][Ac][GB] x2 | A2 d4 [DF]2 | [DA]2 [EG]2 [DF]2 [CE]2 | D8 |] %19
V:2
|: x8 | x10 | x4 C4 | x8 | D6 D2 |1 D6 x2 | x8 | x8 :|2 D6 x4 || x8 | x8 | G4 x4 | x10 | G4 x8 | %14
 x8 | x10 | F6 x2 | x8 | D8 |] %19
V:3
|: [D,A,]4 [D,A,]3 [D,A,] | A,6 z2 A,2 | A,4 [C,G,]4 | [D,F,]6 [D,F,]2 | G,2 B,A, CB,A,G, |1 %5
 G,2 F,4 [D,A,]2 | A,6 [D,A,]2 | [A,,A,]8 :|2 F,6 z2 A,2 || [F,A,]2 [G,B,]2 A,2 [A,,G,]2 | %10
 [D,F,]6 D2 | C6 [A,C]2 | D6 F,2 [D,D]2 | C4 z2 x6 | D6 [D,D]2 | D6 z2 D2 | D2 A,2 z2 A,2 | %17
 [F,A,]2 [G,B,]2 A,2 [A,,G,]2 | [D,F,]8 |] %19
V:4
|: x8 | D,4 F,4 x2 | x8 | x8 | G,,4 G,4 |1 D,6 x2 | D,4 C,2 x2 | x8 :|2 D,4 D,4 x2 || x8 | x8 | %11
 x8 | D2 A,2 x6 | A,,6 (C4 A,2) | D2 (A,2 F,2) x2 | G,4 G,4 x2 | D,4 D,4 | x8 | x8 |] %19

